X:1
T:Title
%%score ( 1 2 ) { 3 | 4 }
L:1/8
Q:1/4=105
M:4/4
K:Eb
V:1 treble nm="Grand Piano, Unnamed-000"
V:2 treble 
V:3 bass nm="Choir Pad, Vater Unser, 88.88.88"
V:4 bass 
V:1
 z4 z2 F2 | [EG]2 [CE]2 [=B,D]2 C2 | [EG]2 [EG]2 DE [FB]2 | [EG]2 [CE]2 [CF]2 [DG]2 | %4
 [EG]2 [DB]2 [Ec][Fd] [Ge]2 | [Fd]2 c-[Fc] [G=B]2 [=Ec]2 | [Fc]2 [Fd]2 [_Gc]2 [=GB]2 | .G2 z2 z4 | %8
 [Fc]2 [FB]2 [E=A]2 [DB]2 | G2 z2 z4 | [CG]2 [FA]2 [EG][DF] [CE]2 | [DF]2 [CE]2 [=B,D]2 C2- | %12
 C6 z2 |] %13
V:2
 [EG]2 [DG]2 [CE]2 CD | x8 | z4 F2 z2 | x8 | x8 | z2 .E2 z4 | x8 | =A-[_GA] =G2 [D_G]2 [D=G]2 | %8
 x8 | ED [CG]2 [DF]2 E2 | x8 | x8 | x8 |] %13
V:3
 C2 G,2 G,2 A,2 | C2 z2 G,2 E,2 | C2 B,2 z2 B,2 | B,2 C2 C2 =B,2 | C2 B,2 A,2 G,2 | %5
 =A,=B,[K:treble] C2 D2 C2 | =A,2 B,2 C2 D2 | EDDC[K:bass] =A,2 B,2 | =A,2 B,2 C2 F,2 | %9
 E,2 E,2 B,2 G,2 | C2 C2 =B,2 C_B, | A,2 G,2 G,F, =E,2- | E,6 z2 |] %13
V:4
 C,2 =B,,2 C,2 F,2 | E,F, G,2 G,,2 C,2 | z2 G,A, B,2 D,2 | E,2 A,2 A,,2 G,,2 | C,2 G,2 F,2 E,2 | %5
 F,G, A,2 G,2 C,2 | F,2 z2 =A,2 G,2 | C,D, E,2 D,2 G,2 | F,2 D,2 C,2 B,,2 | C,B,, A,,2 B,,2 E,2 | %10
 =E,2 F,2 G,2 A,G, | F,2 z2 G,,2 C,2- | C,6 z2 |] %13

